icons/svg/seamark/mooring_pylon.svg

<?xml version="1.0" encoding="UTF-8" standalone="no"?>
<svg
   xmlns:dc="http://purl.org/dc/elements/1.1/"
   xmlns:cc="http://creativecommons.org/ns#"
   xmlns:rdf="http://www.w3.org/1999/02/22-rdf-syntax-ns#"
   xmlns:svg="http://www.w3.org/2000/svg"
   xmlns="http://www.w3.org/2000/svg"
   xmlns:sodipodi="http://sodipodi.sourceforge.net/DTD/sodipodi-0.dtd"
   xmlns:inkscape="http://www.inkscape.org/namespaces/inkscape"
   width="320"
   height="320"
   id="svg2"
   version="1.1"
   inkscape:version="0.48.4 r9939"
   sodipodi:docname="mooring_pylon.svg">
  <defs
     id="defs13">
    <inkscape:path-effect
       effect="gears"
       id="path-effect3774"
       is_visible="true"
       teeth="6"
       phi="-1.2" />
    <inkscape:path-effect
       effect="bend_path"
       id="path-effect3772"
       is_visible="false"
       bendpath="m 95.790098,316.51174 c 144.429032,-206.42506 223.313032,-11.7428 339.548092,0"
       prop_scale="1.19"
       scale_y_rel="false"
       vertical="false"
       bendpath-nodetypes="cc" />
    <inkscape:path-effect
       effect="spiro"
       id="path-effect3775-7"
       is_visible="true" />
    <inkscape:path-effect
       effect="spiro"
       id="path-effect3775-7-9"
       is_visible="true" />
    <inkscape:path-effect
       effect="spiro"
       id="path-effect3775-7-4"
       is_visible="true" />
    <inkscape:path-effect
       effect="spiro"
       id="path-effect3775-7-4-2"
       is_visible="true" />
  </defs>
  <sodipodi:namedview
     pagecolor="#ffffff"
     bordercolor="#666666"
     borderopacity="1"
     objecttolerance="10"
     gridtolerance="10"
     guidetolerance="10"
     inkscape:pageopacity="0"
     inkscape:pageshadow="2"
     inkscape:window-width="1920"
     inkscape:window-height="1004"
     id="namedview11"
     showgrid="true"
     inkscape:zoom="2.3017543"
     inkscape:cx="203.97769"
     inkscape:cy="196.82015"
     inkscape:window-x="1680"
     inkscape:window-y="0"
     inkscape:window-maximized="1"
     inkscape:current-layer="svg2"
     inkscape:snap-bbox="true"
     inkscape:object-nodes="true"
     inkscape:snap-midpoints="true"
     inkscape:snap-grids="true"
     inkscape:snap-bbox-edge-midpoints="true"
     showguides="true"
     inkscape:guide-bbox="true"
     inkscape:snap-global="true">
    <inkscape:grid
       type="xygrid"
       id="grid2990"
       empspacing="5"
       visible="true"
       enabled="true"
       snapvisiblegridlinesonly="true"
       spacingx="10px"
       spacingy="10px"
       dotted="false" />
    <sodipodi:guide
       orientation="1,0"
       position="55.202458,260.58927"
       id="guide3872" />
    <sodipodi:guide
       orientation="1,0"
       position="265.17816,340"
       id="guide3874" />
    <sodipodi:guide
       orientation="0,1"
       position="317.80107,264.96094"
       id="guide3876" />
    <sodipodi:guide
       orientation="0,1"
       position="325.098,54.759006"
       id="guide3878" />
  </sodipodi:namedview>
  <metadata
     id="metadata2975">image/svg+xmlen<rdf:RDF>
  <cc:Work
     rdf:about="">
    <dc:format>image/svg+xml</dc:format>
    <dc:type
       rdf:resource="http://purl.org/dc/dcmitype/StillImage" />
    <dc:title />
  </cc:Work>
</rdf:RDF>
</metadata>
  <path
     style="font-size:medium;font-style:normal;font-variant:normal;font-weight:normal;font-stretch:normal;text-indent:0;text-align:start;text-decoration:none;line-height:normal;letter-spacing:normal;word-spacing:normal;text-transform:none;direction:ltr;block-progression:tb;writing-mode:lr-tb;text-anchor:start;baseline-shift:baseline;opacity:0.42608696;color:#000000;fill:#acd8f3;fill-opacity:1;fill-rule:nonzero;stroke:#a35151;stroke-width:0;stroke-linecap:round;stroke-linejoin:miter;stroke-miterlimit:4;stroke-opacity:1;stroke-dashoffset:0;marker:none;visibility:visible;display:inline;overflow:visible;enable-background:accumulate;font-family:Sans;-inkscape-font-specification:Sans"
     d="m 133.84375,72.5625 c -0.146,0.0078 -0.29187,0.01825 -0.4375,0.03125 0.52719,-0.05151 -4.1603,0.944096 -3.65625,0.78125 0.33732,-0.108981 -1.16049,0.51355 -2.28125,1 l -0.0312,-0.0625 c 0.15652,-0.07154 -1.2449,0.644796 -1.09375,0.5625 -0.30997,0.174377 -0.61243,0.362109 -0.90625,0.5625 -0.0419,0.03099 -0.0835,0.06224 -0.125,0.09375 -0.0334,0.02471 -0.11359,0.082 -0.21875,0.15625 -0.0313,0.01029 -0.0626,0.02071 -0.0938,0.03125 0.0273,-0.01982 -0.0808,0.07614 -0.1875,0.15625 -0.0146,0.0096 -0.0703,0.03659 -0.0625,0.03125 -0.0104,0.0104 -0.0208,0.02081 -0.0312,0.03125 -0.0805,0.06024 -0.17813,0.141948 -0.15625,0.125 -0.0613,0.04191 -0.2471,0.146499 -0.21875,0.125 l 0.0312,0.03125 c -0.36922,0.261567 -0.7241,0.54338 -1.0625,0.84375 0.066,-0.06148 -0.21211,0.181022 -0.46875,0.4375 l 0,0.03125 c 0.002,-0.0014 -0.35578,0.32569 -0.3125,0.28125 -0.008,0.0077 -0.0288,0.06049 -0.0312,0.0625 -0.0104,0.0104 -0.0208,0.02081 -0.0312,0.03125 10e-4,-0.0015 -0.0355,0.0358 -0.0312,0.03125 -0.0817,0.08227 -0.28644,0.287423 -0.25,0.25 -0.27779,0.315375 -0.67574,0.787039 -0.59375,0.6875 -0.042,0.04137 -0.0836,0.08304 -0.125,0.125 0.2783,-0.340825 -1.9633,2.947361 -1.75,2.5625 0.2133,-0.384861 -1.3915,3.260393 -1.25,2.84375 0.1415,-0.416643 -0.78395,3.466409 -0.71875,3.03125 0.0211,-0.140673 -0.0383,0.517425 -0.0625,1 l -0.0312,0 -2.21875,15.875 C 107.88605,100.08324 99.217288,97.625 90,97.625 c -28.767541,0 -52.375,23.60746 -52.375,52.375 0,28.76753 23.607455,52.375 52.375,52.375 4.117145,0 8.080768,-0.61707 11.9375,-1.53125 l -3.75,26.75 c 0,0 -2.993222,16.7782 14.12447,19.53654 17.11769,2.75835 20.34428,-14.72404 20.34428,-14.72404 l 9.96875,-71.3125 0,68.71875 0,0.1875 c 0.0419,0.0119 0.36567,3.70367 0.28125,3.25 -0.0892,-0.47966 1.15067,3.76521 0.96875,3.3125 -0.18192,-0.45271 1.86121,3.43929 1.59375,3.03125 -0.26746,-0.40804 2.49879,3.03492 2.15625,2.6875 -0.34254,-0.34742 3.02922,2.4607 2.625,2.1875 -0.40422,-0.2732 3.48134,1.84455 3.03125,1.65625 -0.45009,-0.1883 3.7596,1.09603 3.28125,1 -0.47835,-0.096 3.92539,0.34375 3.4375,0.34375 -0.48789,0 3.91585,-0.43978 3.4375,-0.34375 -0.47835,0.096 3.73134,-1.1883 3.28125,-1 -0.45009,0.1883 3.43547,-1.92945 3.03125,-1.65625 -0.40422,0.2732 2.96754,-2.53492 2.625,-2.1875 -0.34254,0.34742 2.42371,-3.09554 2.15625,-2.6875 -0.26746,0.40804 1.77567,-3.48396 1.59375,-3.03125 -0.18192,0.45271 1.058,-3.79216 0.96875,-3.3125 -0.0844,0.45367 0.2394,-3.23809 0.28125,-3.25 0.002,-6.8e-4 -3.7e-4,-0.21393 0,-0.1875 l 0,-47.8125 5.3125,49.40625 0.0312,0.4375 0.0312,0 c 0.12164,0.51748 0.61546,3.41645 0.5,3 -0.13223,-0.47695 1.50603,3.69095 1.28125,3.25 -0.22478,-0.44095 2.18328,3.29345 1.875,2.90625 -0.30828,-0.3872 2.81688,2.81787 2.4375,2.5 -0.37938,-0.31787 3.34144,2.20448 2.90625,1.96875 -0.43519,-0.23573 3.69224,1.48786 3.21875,1.34375 -0.47349,-0.14411 3.89898,0.73419 3.40625,0.6875 -0.49273,-0.0467 3.99213,-0.0839 3.5,-0.0312 -0.49213,0.0526 3.87797,-0.86855 3.40625,-0.71875 -0.47172,0.1498 3.65107,-1.61596 3.21875,-1.375 -0.43232,0.24096 3.21927,-2.32241 2.84375,-2 -0.37552,0.32241 2.70985,-2.92214 2.40625,-2.53125 -0.3036,0.39089 2.0632,-3.38113 1.84375,-2.9375 -0.21945,0.44363 1.37647,-3.75976 1.25,-3.28125 -0.12647,0.47851 0.55966,-3.93162 0.53125,-3.4375 -0.0246,0.42788 -0.13181,-2.45838 -0.125,-3.03125 l 0.0312,0 -0.0625,-0.46875 L 202.375,89.125 c -0.0229,-0.751753 -0.0883,-1.568589 -0.0625,-1.375 0.0633,0.475025 -0.93516,-3.766329 -0.78125,-3.3125 0.15391,0.453829 -1.61376,-3.478003 -1.375,-3.0625 0.0551,0.09596 -0.29907,-0.396719 -0.46875,-0.625 -0.0409,-0.07334 -0.0826,-0.14626 -0.125,-0.21875 -0.37175,-0.640853 -0.80112,-1.248262 -1.28125,-1.8125 -0.0311,-0.03142 -0.0623,-0.06267 -0.0937,-0.09375 -0.0513,-0.07348 -0.10338,-0.146401 -0.15625,-0.21875 0.11553,0.127355 -0.50389,-0.498742 -0.875,-0.875 -0.007,-0.0067 0.006,-0.02478 0,-0.03125 0.0114,0.01118 -0.0998,-0.06965 -0.0937,-0.0625 -0.0782,-0.0802 -0.28639,-0.28301 -0.25,-0.25 l -0.0312,0.03125 C 196.38828,77.036485 192.64152,74.390345 193,74.53125 L 193,74.5 c 0.0124,0.0065 -0.10035,-0.03547 -0.0937,-0.03125 0.28265,0.180744 -4.55381,-1.605516 -3.96875,-1.46875 0.59871,0.139958 -4.92723,-0.425185 -4.3125,-0.4375 -0.0312,-1.18e-4 -0.0625,-1.18e-4 -0.0937,0 0.0922,-0.0027 -0.37311,0.03289 -0.65625,0.0625 l -23.03125,0 c -0.0822,-0.008 -0.12506,0.0065 -0.1875,0 -0.17874,-0.01869 -0.60701,-0.0636 -0.53125,-0.0625 -0.17706,-0.0038 -0.35419,-0.0038 -0.53125,0 0.0922,-0.0027 -0.37311,0.03289 -0.65625,0.0625 l -23.15625,0 0,0.03125 c -1.09994,-0.0607 -2.21158,-0.07672 -1.9375,-0.09375 z M 90,132.375 c 9.98585,0 17.625,7.63913 17.625,17.625 0,9.98584 -7.63916,17.625 -17.625,17.625 -9.985854,0 -17.625,-7.63915 -17.625,-17.625 0,-9.98587 7.639136,-17.625 17.625,-17.625 z"
     inkscape:connector-curvature="0"
     sodipodi:nodetypes="ccscccccccccccccccccccccccssccccssscczcccccssssscscssssscccccccssssssccssssssscccccsccccccccccccccsccccccccccccsssss" />
  <path
     style="fill:none;stroke:#000000;stroke-width:10;stroke-linecap:round;stroke-linejoin:round;stroke-miterlimit:4;stroke-opacity:1;stroke-dasharray:none"
     d="M 135,90 115.42683,230"
     inkscape:connector-curvature="0"
     sodipodi:nodetypes="cc"
     id="path18" />
  <path
     sodipodi:type="arc"
     style="color:#000000;fill:none;stroke:#000000;stroke-width:12.00130653;stroke-linecap:butt;stroke-linejoin:miter;stroke-miterlimit:4;stroke-opacity:1;stroke-dasharray:none;stroke-dashoffset:0;marker:none;visibility:visible;display:inline;overflow:visible;enable-background:accumulate"
     id="path2993"
     sodipodi:cx="142.00458"
     sodipodi:cy="152.00458"
     sodipodi:rx="42.00457"
     sodipodi:ry="42.00457"
     d="m 184.00915,152.00458 a 42.00457,42.00457 0 1 1 -84.00914,0 42.00457,42.00457 0 1 1 84.00914,0 z"
     transform="matrix(0.83324267,0,0,0.83324267,-28.324273,23.3433)" />
  <path
     id="path3942"
     style="fill:none;stroke:#000000;stroke-width:10;stroke-linecap:round;stroke-linejoin:round;stroke-miterlimit:4;stroke-opacity:1;stroke-dasharray:none"
     d="m 185,90 15,140"
     inkscape:connector-curvature="0"
     sodipodi:nodetypes="cc" />
  <path
     id="path3961"
     style="fill:none;stroke:#000000;stroke-width:10;stroke-linecap:round;stroke-linejoin:round;stroke-miterlimit:4;stroke-opacity:1;stroke-dasharray:none"
     d="m 160,90 0,140"
     inkscape:connector-curvature="0"
     sodipodi:nodetypes="cc" />
  <path
     id="path3980"
     style="fill:none;stroke:#000000;stroke-width:10;stroke-linecap:round;stroke-linejoin:round;stroke-miterlimit:4;stroke-opacity:1;stroke-dasharray:none"
     d="m 185,90 -50,0"
     inkscape:connector-curvature="0"
     sodipodi:nodetypes="cc" />
</svg>

<svg width="320" height="320" viewBox="0 0 320 320" fill="none" xmlns="http://www.w3.org/2000/svg">
<path opacity="0.426087" d="M133.844 72.5624C133.698 72.5702 133.552 72.5807 133.406 72.5937C133.933 72.5422 129.246 73.5378 129.75 73.3749C130.087 73.2659 128.59 73.8885 127.469 74.3749L127.438 74.3124C127.594 74.2409 126.193 74.9572 126.344 74.8749C126.034 75.0493 125.731 75.237 125.438 75.4374C125.396 75.4684 125.354 75.4997 125.313 75.5312C125.279 75.5559 125.199 75.6132 125.094 75.6874C125.063 75.6977 125.031 75.7081 125 75.7187C125.027 75.6989 124.919 75.7948 124.812 75.8749C124.798 75.8845 124.742 75.9115 124.75 75.9062C124.74 75.9166 124.729 75.927 124.719 75.9374C124.638 75.9977 124.541 76.0794 124.563 76.0624C124.501 76.1043 124.315 76.2089 124.344 76.1874L124.375 76.2187C124.006 76.4802 123.651 76.7621 123.312 77.0624C123.378 77.0009 123.1 77.2434 122.844 77.4999V77.5312C122.846 77.5298 122.488 77.8569 122.531 77.8124C122.523 77.8201 122.502 77.8729 122.5 77.8749C122.49 77.8853 122.479 77.8957 122.469 77.9062C122.47 77.9047 122.433 77.942 122.438 77.9374C122.356 78.0197 122.151 78.2248 122.188 78.1874C121.91 78.5028 121.512 78.9745 121.594 78.8749C121.552 78.9163 121.51 78.958 121.469 78.9999C121.747 78.6591 119.506 81.9473 119.719 81.5624C119.932 81.1776 118.327 84.8228 118.469 84.4062C118.61 83.9895 117.685 87.8726 117.75 87.4374C117.771 87.2967 117.712 87.9548 117.688 88.4374H117.656L115.438 104.312C107.886 100.083 99.2173 97.6249 90 97.6249C61.2325 97.6249 37.625 121.232 37.625 150C37.625 178.767 61.2325 202.375 90 202.375C94.1171 202.375 98.0808 201.758 101.938 200.844L98.1875 227.594C98.1875 227.594 95.1943 244.372 112.312 247.13C129.43 249.889 132.656 232.406 132.656 232.406L142.625 161.094V229.812V230C142.667 230.012 142.991 233.704 142.906 233.25C142.817 232.77 144.057 237.015 143.875 236.562C143.693 236.11 145.736 240.002 145.469 239.594C145.201 239.186 147.968 242.629 147.625 242.281C147.282 241.934 150.654 244.742 150.25 244.469C149.846 244.195 153.731 246.313 153.281 246.125C152.831 245.937 157.041 247.221 156.562 247.125C156.084 247.029 160.488 247.469 160 247.469C159.512 247.469 163.916 247.029 163.438 247.125C162.959 247.221 167.169 245.937 166.719 246.125C166.269 246.313 170.154 244.195 169.75 244.469C169.346 244.742 172.718 241.934 172.375 242.281C172.032 242.629 174.799 239.186 174.531 239.594C174.264 240.002 176.307 236.11 176.125 236.562C175.943 237.015 177.183 232.77 177.094 233.25C177.009 233.704 177.333 230.012 177.375 230C177.377 229.999 177.375 229.786 177.375 229.812V182L182.688 231.406L182.719 231.844H182.75C182.872 232.361 183.365 235.26 183.25 234.844C183.118 234.367 184.756 238.535 184.531 238.094C184.306 237.653 186.714 241.387 186.406 241C186.098 240.613 189.223 243.818 188.844 243.5C188.464 243.182 192.185 245.704 191.75 245.469C191.315 245.233 195.442 246.957 194.969 246.812C194.495 246.668 198.868 247.547 198.375 247.5C197.882 247.453 202.367 247.416 201.875 247.469C201.383 247.521 205.753 246.6 205.281 246.75C204.809 246.9 208.932 245.134 208.5 245.375C208.068 245.616 211.719 243.053 211.344 243.375C210.968 243.697 214.053 240.453 213.75 240.844C213.446 241.235 215.813 237.463 215.594 237.906C215.374 238.35 216.97 234.146 216.844 234.625C216.717 235.103 217.403 230.693 217.375 231.187C217.35 231.615 217.243 228.729 217.25 228.156H217.281L217.219 227.687L202.375 89.1249C202.352 88.3732 202.287 87.5563 202.312 87.7499C202.376 88.2249 201.377 83.9836 201.531 84.4374C201.685 84.8912 199.917 80.9594 200.156 81.3749C200.211 81.4709 199.857 80.9782 199.688 80.7499C199.647 80.6766 199.605 80.6037 199.562 80.5312C199.191 79.8903 198.761 79.2829 198.281 78.7187C198.25 78.6873 198.219 78.656 198.188 78.6249C198.136 78.5514 198.084 78.4785 198.031 78.4062C198.147 78.5335 197.527 77.9074 197.156 77.5312C197.149 77.5245 197.162 77.5064 197.156 77.4999C197.168 77.5111 197.057 77.4303 197.063 77.4374C196.984 77.3572 196.776 77.1544 196.813 77.1874L196.781 77.2187C196.388 77.0364 192.642 74.3903 193 74.5312V74.4999C193.012 74.5064 192.9 74.4645 192.906 74.4687C193.189 74.6494 188.352 72.8632 188.938 72.9999C189.536 73.1399 184.01 72.5747 184.625 72.5624C184.594 72.5623 184.563 72.5623 184.531 72.5624C184.624 72.5597 184.158 72.5953 183.875 72.6249H160.844C160.762 72.6169 160.719 72.6314 160.656 72.6249C160.478 72.6062 160.049 72.5613 160.125 72.5624C159.948 72.5586 159.771 72.5586 159.594 72.5624C159.686 72.5597 159.221 72.5953 158.938 72.6249H135.781V72.6562C134.681 72.5955 133.57 72.5795 133.844 72.5624H133.844ZM90 132.375C99.9859 132.375 107.625 140.014 107.625 150C107.625 159.986 99.9858 167.625 90 167.625C80.0141 167.625 72.375 159.986 72.375 150C72.375 140.014 80.0141 132.375 90 132.375Z" fill="#ACD8F3"/>
<path d="M135 90L115.427 230" stroke="black" stroke-width="10" stroke-linecap="round" stroke-linejoin="round"/>
<path d="M125 150C125 159.283 121.313 168.185 114.749 174.749C108.185 181.313 99.2826 185 90 185C80.7174 185 71.815 181.313 65.2513 174.749C58.6875 168.185 55 159.283 55 150C55 140.717 58.6875 131.815 65.2513 125.251C71.815 118.687 80.7174 115 90 115C99.2826 115 108.185 118.687 114.749 125.251C121.313 131.815 125 140.717 125 150V150Z" stroke="black" stroke-width="10"/>
<path d="M185 90L200 230" stroke="black" stroke-width="10" stroke-linecap="round" stroke-linejoin="round"/>
<path d="M160 90V230" stroke="black" stroke-width="10" stroke-linecap="round" stroke-linejoin="round"/>
<path d="M185 90H135" stroke="black" stroke-width="10" stroke-linecap="round" stroke-linejoin="round"/>
</svg>
